X:7496
T:I'll Make You Fain To Follow Me. HSJJ.094
M:6/8
L:1/8
Q:110
S:HSJ Jackson,Wyresdale,Lancs.1823
R:Jig
O:England
A:Lancashire
H:1823
Z:vmp.Chris Partington.
K:C
C|EGA c2e|dDD D2C|EGA c>dc|BAB cAE|FdF EcE|!dDD D2C|E>GAc2G|ECCC2:|
|:g|ega gec|f>ged2c|!ega gec|faf gec|fea gec|e/-f/ged2D|EGAc2G|ECCC2:|]!
"Then this fragment"e dgf|e2c e/f/gd|eccc2|]
